X:1
T:Title
%%score 1 { 2 | 3 }
L:1/8
Q:1/4=110
M:4/4
K:F
V:1 treble nm="Grand Piano, Soprano"
V:2 bass nm="Choir Pad, Sheridan, George F. Root"
V:3 bass 
V:1
 C>C [CF]2 [CG]2 [FA]2 | [FB]2 [Fc]2 [Fd]4 | [Fc]>[FA] F2 F2 [EG]2 | [EG]2 [FA]6 | %4
w: By~George~Frederick~Root,~1881 * * * *||||
 [FA]>[FA] [EG]2 [Ec]2 [Ed]2 | [Ee]2 [Fd]2 [Fc]2 [FA]2 | [Fc]2 [EG]2 [EG]2 [FA]2 | [FG]2 [Ec]6 | %8
w: ||||
 C>C [CF]2 [CG]2 [FA]2 | [FB]2 [Fc]2 [Fd]4 | [Fc]>[FA] F2 F2 [EG]2 | [EG]2 [FA]6 | %12
w: ||||
 [FG]>[FA] [FB]2 [Fc]2 [Bd]2 | [Ge]2 [Ff]2 [FA]4 | [FA]>[F=B] [Fc]2 [Fc]2 [Ed]2 | [Ec]2 F6- | %16
w: ||||
 F2 z2 z4 |] %17
w: |
V:2
 C,>C, A,2 B,2 C2 | B,2 A,2 B,4 | A,>A, A,2 A,2[K:treble] C2 | C2 C6 | C>C C2 C2 C2 | %5
 C2[K:bass] A,2 A,2 C2 | A,2 G,2[K:treble] C2 =B,2 | D2 C6 | C>C[K:bass] A,2 B,2 C2 | B,2 A,2 B,4 | %10
 A,>A, A,2 A,2[K:treble] C2 | C2 C6 | C>C D2 D2[K:bass] B,2 | B,2 A,2 A,4 | A,>_A, =A,2 A,2 B,2 | %15
 B,2 A,6- | A,2 z2 z4 |] %17
V:3
 z2 F,2 F,2 F,2 | F,2 F,2 F,4 | F,>F, D,2 D,2 C,2 | C,2 F,6 | F,>F, C,2 C,2 C,2 | C,2 F,2 F,2 F,2 | %6
 F,2 z2 G,2 G,2 | G,2 C,6 | C,>C, F,2 F,2 F,2 | F,2 F,2 F,4 | F,>F, D,2 D,2 C,2 | C,2 F,6 | %12
 F,>F, B,,2 B,,2 B,,2 | C,2 D,2 D,4 | D,>D, C,2 C,2 C,2 | C,2 F,6- | F,2 z2 z4 |] %17

